X: 41224
T: Trossachs Road
R: strathspey
M: 4/4
K: Cmajor
|:E2 D>C E<G G2|A>G A>c d3e|c>e A>c G>c E>c|F>E D>C A,2G>F|
E2 D>C E<G G2|A>G A>c d3 e|c>C E>G A>F A>c|1 B>G B>d c2 G>F:|2 B>G B>d c2 B>c||
|:d<G G>d e<c c>g|a>c g>c f>c e>c|d2 d>e d>c B>A|B>G B>d g2 B>c|
d<G G>d e<c c>g|a>c g>c f>c e>c|d2 d>e f>d B>G|1 c2 e2 c2 B>c:|2 c2 e2 c2 G>F||

